X:1
T: The Isle of Rhum
C:
R:Reel
Q: 232
K:G
M:4/4
L:1/8
B2 GB dg fg|e2 d2 d2 GA|B2 GB dg fg|c2 A2 A2 GA|B2 GB dg fg|e2 d2 d2 GA|Bg fg Ad cd|B2 G2 G2 Bc|
dg fg ed Bd|e2 d2 d2 Bc|dg fg ed BG|c2 A2 A2 Bc|dg fg ed Bd|e2 d2 d2 GA|Bg fg Ad cd|B2 G2 G2 dc|
BG Bd ed cA|B2 G2 G2 GA|BG Bd ed cB|c2 A2 A2 dc|BG Bd ed cA|B2 G2 G2 c2|Bg fg Ad cd|B2 G2 G2 Bc|
dg fg eg fg|B2 G2 G2 Bc|dg fg ed BG|c2 A2 A2 dc|Bd AB G2 dc|BG Bd c2 GA|Bg fg Ad cd|B2 G2 G2||
